X: 7
T:March in Blue Beard. ST.07
M:4/4
L:1/8
Q:150
S:Annonymous Staffordshire MS, Early 19thC.
R:March
O:England
A:Staffordshire
Z:vmp.Tim Willets
K:D
a3gf2e2|d4e4|fefg a2gf|eeeee2z2|!
a3gf2e2|d4e4|fefgf2e2|d2d>d"cr"d4:|!
|:e3dc2d2|e4"g"f4|gfga b2gf|eeeee2z2|!
e3dc2d2|e4f4|"qu's"e2d2c2B2|A2A>AA2z2|!
a3gf2e2|d4e4|fefga2gf|e2e>ee2z2|!
a3gf2e2|d4e4|fefgf2e2|d2d>dd4:|]
